X:4900
T:P\'adraig O'Keefe's Slide
O:england
R:slide
M:6/8
K:D
f3 fed|g3 g2f|eAc ecA|f3 f2e|
d3 dcd|efg e2d|cBc ABc|1 d2a bag:|2 d2A B2A||
|:F2A AGF|G2B BAG|cBc ABc|d2e f3|
F2A AGF|G2B BAG|cBc ABc|1 d2A BAG:|2 d2a bag||


